packages/blockchain-info-components/src/Images/img/credit-card-blue.svg

<svg fill="none" height="24" viewBox="0 0 24 24" width="24" xmlns="http://www.w3.org/2000/svg"><circle cx="12" cy="12" fill="#d8ebfd" r="12"/><path d="m17.3359 6.66669h-10.66663c-.74 0-1.32667.59333-1.32667 1.33333l-.00666 7.99998c0 .74.59333 1.3334 1.33333 1.3334h10.66663c.74 0 1.3334-.5934 1.3334-1.3334v-7.99998c0-.74-.5934-1.33333-1.3334-1.33333zm0 9.33331h-10.66663v-4h10.66663zm0-6.66665h-10.66663v-1.33333h10.66663z" fill="#0c6cf2"/></svg>

<svg width="24" height="24" viewBox="0 0 24 24" fill="none" xmlns="http://www.w3.org/2000/svg">
<circle cx="12" cy="12" r="12" fill="#D8EBFD"/>
<path d="M17.3359 6.66669H6.66927C5.92927 6.66669 5.3426 7.26002 5.3426 8.00002L5.33594 16C5.33594 16.74 5.92927 17.3334 6.66927 17.3334H17.3359C18.0759 17.3334 18.6693 16.74 18.6693 16V8.00002C18.6693 7.26002 18.0759 6.66669 17.3359 6.66669ZM17.3359 16H6.66927V12H17.3359V16ZM17.3359 9.33335H6.66927V8.00002H17.3359V9.33335Z" fill="#0C6CF2"/>
</svg>
